public/assets/images/icons/404.svg

<svg xmlns="http://www.w3.org/2000/svg" xml:space="preserve" width="500" height="280" x="0" y="0" version="1.1" viewBox="0 0 181.6 79.5"><path d="M32.7 64.6H3.6V48.2L31.2 4.1h19.3v43.4h6.9v17.1h-6.9v12.1H32.7V64.6zm1.4-17.2v-21l-12.4 21h12.4zm56.6-46c18.9 0 26.2 15.5 26.2 37.3 0 22.1-7.3 37.5-26.2 37.5S64.6 60.8 64.6 38.7c0-21.7 7.2-37.3 26.1-37.3zm0 18.7c-7.8 0-8.7 8.5-8.7 18.7 0 10.5.9 18.9 8.7 18.9 7.8 0 8.7-8.4 8.7-18.9 0-10.2-.9-18.7-8.7-18.7zm63.2 44.5h-29.1V48.2L152.4 4h19.3v43.4h6.9v17.1h-6.9v12.1h-17.8v-12zm1.3-17.2v-21l-12.4 21.1h12.4z" fill="#fff"/></svg>

<?xml version="1.0" encoding="utf-8"?>
<!-- Generator: Adobe Illustrator 22.0.1, SVG Export Plug-In . SVG Version: 6.00 Build 0)  -->
<svg width="500px" height="280px" version="1.1" id="Layer_1" xmlns="http://www.w3.org/2000/svg" xmlns:xlink="http://www.w3.org/1999/xlink" x="0px" y="0px"
	 viewBox="0 0 181.6 79.5" style="enable-background:new 0 0 181.6 79.5;" xml:space="preserve">
<style type="text/css">
	.st0{fill:#FFFFFF;}
</style>
<g>
	<path class="st0" d="M32.7,64.6H3.6V48.2L31.2,4.1h19.3v43.4h6.9v17.1h-6.9v12.1H32.7V64.6z M34.1,47.4V26.4L21.7,47.4H34.1z"/>
	<path class="st0" d="M90.7,1.4c18.9,0,26.2,15.5,26.2,37.3c0,22.1-7.3,37.5-26.2,37.5c-18.9,0-26.1-15.4-26.1-37.5
		C64.6,17,71.8,1.4,90.7,1.4z M90.7,20.1c-7.8,0-8.7,8.5-8.7,18.7c0,10.5,0.9,18.9,8.7,18.9c7.8,0,8.7-8.4,8.7-18.9
		C99.4,28.6,98.5,20.1,90.7,20.1z"/>
	<path class="st0" d="M153.9,64.6h-29.1V48.2l27.6-44.2h19.3v43.4h6.9v17.1h-6.9v12.1h-17.8V64.6z M155.2,47.4V26.4l-12.4,21.1
		H155.2z"/>
</g>
</svg>
